X:1
T:Never Say Goodbye
T:Never Say Goodbye
T:Ira David Sankey
T:Francs Jane (Fanny) Crosby, 1894
T:Public Domain Courtesy of the Cyber Hymnal™
C:Ira David Sankey
Z:Public Domain
Z:Courtesy of the Cyber Hymnal™
%%score ( 1 2 ) ( 3 4 )
L:1/8
Q:1/4=105
M:6/8
K:G
V:1 treble 
V:2 treble 
V:3 bass 
V:4 bass 
V:1
 [B,D] | [B,D]2 [DG] [GB]2 [Gd] | [Gd]2 [GB] G2 [FA] | [GB] [GB]2 [Ac]2 [GB] | [FA]3- [FA]2 D | %5
w: 1.~O|bless- èd home where|those who meet Shall|nev- er say good-|bye; * Where|
w: 2.~Be-|yond this vale of|toil and care, We’ll|nev- er say good-|bye; * We|
w: 3.~When|safe a- mong the|ran- somed throng We’ll|nev- er say good-|bye; * Where|
w: 4.~On|yon- der fair and|peace- ful shore, We’ll|nev- er say good-|bye; * But|
 D2 [DG] [GB]2 [Gd] | [Gd]2 [GB] G2 [Gc] | [GB] [GB]2 [FB]2 [DA] | [DG]3- [DG]2 ||"^Refrain" [GB] | %10
w: kin- dred souls each|o- ther greet, And|nev- er say good-|bye. *||
w: part in tears on|earth, but there— We’ll|nev- er say good-|bye *|We’ll|
w: life is one e-|ter- nal song, We’ll|nev- er say good-|bye. *||
w: dwell with Christ for-|ev- er- more, And|nev- er say good-|bye. *||
 [Gd] [Gd]2 [G^c]2 [Gd] | [GB]3- [GB]2 [Gd] | [Ge] [Ge]2 [Ec]2 [Ge] | [Gd]3- [Gd]2 [GB] | %14
w: ||||
w: nev- er say good-|bye, * We’ll|nev- er say good-|bye; * In|
w: ||||
w: ||||
 [GB]2 [Dd] [Dc]2 [DB] | [EA]2 [Ec] !fermata![Ge]2 [Ge] | [Gd] [GB]2 [FB]2 [DA] | [DG]3- [DG]2 |] %18
w: ||||
w: that fair land be-|yond the sky, We’ll|nev- er say good-|bye. *|
w: ||||
w: ||||
V:2
 x | x6 | x3 G2 x | x6 | x5 D | D2 x4 | x3 G2 x | x6 | x5 || x | x6 | x6 | x6 | x6 | x6 | x6 | x6 | %17
 x5 |] %18
V:3
 G, | G,2 [G,B,] [G,D]2 [G,B,] | [G,B,]2 [G,D] [G,B,]2 [D,D] | [G,D] [G,D]2 [F,D]2 [G,D] | %4
w: ~|~ ~ ~ ~|~ ~ ~ ~|~ ~ ~ ~|
 [D,D]3- [D,D]2 [F,C] | [G,B,]2 [G,B,] [G,D]2 [G,B,] | [G,B,]2 [G,D] [G,B,]2 [C,E] | %7
w: ~ * ~|~ ~ ~ ~|~ ~ ~ ~|
 [D,D] [D,D]2 [D,D]2 [D,C] | [G,B,]3- [G,B,]2 || [G,D] | [G,B,] [G,B,]2 [G,^A,]2 [G,B,] | %11
w: ~ ~ ~ ~|~ *|~|~ ~ ~ ~|
 [G,D]2 [G,D] [G,D]2 [G,B,] | [C,C] [C,C]2 [C,G,]2 [C,C] | [G,B,]2 [G,B,] [G,B,]2 [G,D] | %14
w: ~ good- bye; ~|~ ~ ~ ~|~ good- bye; *|
 [G,D]2 [G,B,] [F,A,]2 G, | [C,C]2 [C,G,] !fermata![C,C]2 [^C,A,] | [D,B,] [D,D]2 [D,D]2 [D,C] | %17
w: |||
 [G,B,]3- [G,B,]2 |] %18
w: |
V:4
 G, | G,2 x4 | x6 | x6 | x6 | x6 | x6 | x6 | x5 || x | x6 | x6 | x6 | x6 | x5 G, | x6 | x6 | x5 |] %18

